Numix/16/status/indicator-keyboard-Bs-1.svg

<?xml version="1.0" encoding="UTF-8" standalone="no"?>
<svg
   xmlns:dc="http://purl.org/dc/elements/1.1/"
   xmlns:cc="http://creativecommons.org/ns#"
   xmlns:rdf="http://www.w3.org/1999/02/22-rdf-syntax-ns#"
   xmlns:svg="http://www.w3.org/2000/svg"
   xmlns="http://www.w3.org/2000/svg"
   xmlns:sodipodi="http://sodipodi.sourceforge.net/DTD/sodipodi-0.dtd"
   xmlns:inkscape="http://www.inkscape.org/namespaces/inkscape"
   viewBox="0 0 16 16"
   id="svg2"
   version="1.1"
   inkscape:version="0.91 r13725"
   sodipodi:docname="indicator-keyboard-Bs-1.svg">
  <metadata
     id="metadata14">
    <rdf:RDF>
      <cc:Work
         rdf:about="">
        <dc:format>image/svg+xml</dc:format>
        <dc:type
           rdf:resource="http://purl.org/dc/dcmitype/StillImage" />
      </cc:Work>
    </rdf:RDF>
  </metadata>
  <defs
     id="defs12" />
  <sodipodi:namedview
     pagecolor="#ffffff"
     bordercolor="#666666"
     borderopacity="1"
     objecttolerance="10"
     gridtolerance="10"
     guidetolerance="10"
     inkscape:pageopacity="0"
     inkscape:pageshadow="2"
     inkscape:window-width="640"
     inkscape:window-height="480"
     id="namedview10"
     showgrid="false"
     inkscape:zoom="14.75"
     inkscape:cx="8"
     inkscape:cy="8"
     inkscape:window-x="65"
     inkscape:window-y="24"
     inkscape:window-maximized="0"
     inkscape:current-layer="svg2" />
  <path
     style="fill:#ececec;fill-opacity:1"
     d="M 1.5996094 0 C 0.71320937 2.9605947e-16 0 0.71320937 0 1.5996094 L 0 14.400391 C 2.9605947e-16 15.286791 0.71320937 16 1.5996094 16 L 14.400391 16 C 15.286791 16 16 15.286791 16 14.400391 L 16 1.5996094 C 16 0.71320937 15.286791 0 14.400391 0 L 1.5996094 0 z M 4.1660156 4.8046875 C 4.5020156 4.8046875 4.8191406 4.8327187 5.1191406 4.8867188 C 5.4251406 4.9407188 5.6919219 5.03025 5.9199219 5.15625 C 6.1479219 5.28225 6.3289375 5.4501562 6.4609375 5.6601562 C 6.5989375 5.8641562 6.6679687 6.1197813 6.6679688 6.4257812 C 6.6679688 6.7617813 6.58025 7.0490625 6.40625 7.2890625 C 6.23825 7.5230625 6.0106563 7.6853906 5.7226562 7.7753906 C 5.9026562 7.8173906 6.06875 7.8770781 6.21875 7.9550781 C 6.36875 8.0330781 6.4992812 8.1357187 6.6132812 8.2617188 C 6.7272813 8.3817188 6.815 8.5309375 6.875 8.7109375 C 6.941 8.8849375 6.9746094 9.0957969 6.9746094 9.3417969 C 6.9746094 9.9297971 6.7394844 10.379406 6.2714844 10.691406 C 5.8034844 10.997406 5.0815156 11.150391 4.1035156 11.150391 C 4.0015156 11.150391 3.8801875 11.144813 3.7421875 11.132812 C 3.6101875 11.126813 3.472125 11.113703 3.328125 11.095703 C 3.190125 11.083703 3.0595938 11.068781 2.9335938 11.050781 C 2.8075938 11.026781 2.699375 11.002516 2.609375 10.978516 L 2.609375 4.9765625 C 2.717375 4.9465625 2.83675 4.9222969 2.96875 4.9042969 C 3.10075 4.8802969 3.2350469 4.8616094 3.3730469 4.8496094 C 3.5170469 4.8316094 3.6551094 4.8204531 3.7871094 4.8144531 C 3.9251094 4.8084531 4.0520156 4.8046875 4.1660156 4.8046875 z M 4.1660156 5.3261719 C 3.9440156 5.3261719 3.7556094 5.3337031 3.5996094 5.3457031 C 3.4496094 5.3577031 3.3227031 5.372625 3.2207031 5.390625 L 3.2207031 7.5859375 L 4.4082031 7.5859375 C 4.6302031 7.5859375 4.8410625 7.5710156 5.0390625 7.5410156 C 5.2370625 7.5050156 5.4087344 7.4453281 5.5527344 7.3613281 C 5.7027344 7.2713281 5.8183438 7.1537656 5.9023438 7.0097656 C 5.9863437 6.8597656 6.0292969 6.6713594 6.0292969 6.4433594 C 6.0292969 6.2393594 5.9845312 6.0676875 5.8945312 5.9296875 C 5.8045312 5.7856875 5.6738594 5.668125 5.5058594 5.578125 C 5.3438594 5.488125 5.149875 5.426625 4.921875 5.390625 C 4.693875 5.348625 4.4420156 5.3261719 4.1660156 5.3261719 z M 9.5097656 6.3359375 C 9.8277656 6.3359375 10.088969 6.3620156 10.292969 6.4160156 C 10.502969 6.4700156 10.650375 6.5185469 10.734375 6.5605469 L 10.599609 7.0820312 C 10.527609 7.0460313 10.404469 6.9975 10.230469 6.9375 C 10.062469 6.8775 9.814375 6.8476563 9.484375 6.8476562 C 9.352375 6.8476562 9.2254688 6.8625781 9.1054688 6.8925781 C 8.9914687 6.9165781 8.8888281 6.9595312 8.7988281 7.0195312 C 8.7088281 7.0735313 8.6379844 7.144375 8.5839844 7.234375 C 8.5299844 7.318375 8.5019531 7.4247812 8.5019531 7.5507812 C 8.5019531 7.6767813 8.5262187 7.7830469 8.5742188 7.8730469 C 8.6222187 7.9630469 8.69125 8.0451875 8.78125 8.1171875 C 8.87725 8.1831875 8.9910469 8.2466406 9.1230469 8.3066406 C 9.2610469 8.3666406 9.4177969 8.4319063 9.5917969 8.5039062 C 9.7717969 8.5759062 9.943469 8.6505156 10.105469 8.7285156 C 10.273469 8.8005156 10.418922 8.8900469 10.544922 8.9980469 C 10.670922 9.1000469 10.773563 9.2269531 10.851562 9.3769531 C 10.929563 9.5209531 10.96875 9.7037812 10.96875 9.9257812 C 10.96875 10.345781 10.810188 10.664859 10.492188 10.880859 C 10.180187 11.096859 9.7510779 11.203125 9.2050781 11.203125 C 8.7970781 11.203125 8.4835781 11.167703 8.2675781 11.095703 C 8.0515781 11.029703 7.9079375 10.979359 7.8359375 10.943359 L 7.9902344 10.412109 C 8.0082344 10.424109 8.0474219 10.444609 8.1074219 10.474609 C 8.1674219 10.498609 8.2476094 10.528453 8.3496094 10.564453 C 8.4516094 10.594453 8.5709844 10.622484 8.7089844 10.646484 C 8.8529844 10.670484 9.0190781 10.681641 9.2050781 10.681641 C 9.5410781 10.681641 9.8172033 10.627531 10.033203 10.519531 C 10.255203 10.405531 10.365234 10.217125 10.365234 9.953125 C 10.365234 9.827125 10.344734 9.7189062 10.302734 9.6289062 C 10.266734 9.5389062 10.203281 9.4587188 10.113281 9.3867188 C 10.023281 9.3147187 9.9039062 9.2456875 9.7539062 9.1796875 C 9.6099063 9.1136875 9.4288906 9.0353125 9.2128906 8.9453125 C 9.0388906 8.8733125 8.87475 8.8005156 8.71875 8.7285156 C 8.56275 8.6505156 8.4246875 8.56475 8.3046875 8.46875 C 8.1846875 8.36675 8.087625 8.2454219 8.015625 8.1074219 C 7.943625 7.9694219 7.9082031 7.8015156 7.9082031 7.6035156 C 7.9082031 7.2255156 8.0500313 6.9195469 8.3320312 6.6855469 C 8.6200313 6.4515469 9.0117656 6.3359375 9.5097656 6.3359375 z M 3.2207031 8.1074219 L 3.2207031 10.564453 C 3.3107031 10.576453 3.445 10.591375 3.625 10.609375 C 3.805 10.621375 3.9878281 10.628906 4.1738281 10.628906 C 4.4498281 10.628906 4.7185625 10.610219 4.9765625 10.574219 C 5.2405625 10.538219 5.4699687 10.472953 5.6679688 10.376953 C 5.8659688 10.280953 6.0264844 10.148469 6.1464844 9.9804688 C 6.2664844 9.8124687 6.3261719 9.5960312 6.3261719 9.3320312 C 6.3261719 9.0920312 6.2832188 8.8942812 6.1992188 8.7382812 C 6.1152188 8.5762813 5.9958437 8.449375 5.8398438 8.359375 C 5.6838438 8.263375 5.4916719 8.1981094 5.2636719 8.1621094 C 5.0416719 8.1261094 4.7935781 8.1074219 4.5175781 8.1074219 L 3.2207031 8.1074219 z M 13.123047 8.8417969 L 13.390625 8.8417969 L 13.390625 12.896484 L 13.011719 12.896484 L 13.011719 9.421875 C 12.968819 9.468675 12.911997 9.5157063 12.841797 9.5664062 C 12.775497 9.6171062 12.699081 9.66805 12.613281 9.71875 C 12.527481 9.76555 12.43735 9.812575 12.34375 9.859375 C 12.25015 9.902275 12.1561 9.9375437 12.0625 9.9648438 L 11.951172 9.671875 C 12.185172 9.5899751 12.394825 9.4880812 12.578125 9.3632812 C 12.761425 9.2345813 12.943648 9.0601969 13.123047 8.8417969 z "
     id="path4" />
</svg>

<svg xmlns="http://www.w3.org/2000/svg" viewBox="0 0 16 16">
 <path d="m 1.6 0 c -0.886 0 -1.6 0.713 -1.6 1.6 l 0 12.801 c 0 0.886 0.713 1.6 1.6 1.6 l 12.801 0 c 0.886 0 1.6 -0.713 1.6 -1.6 l 0 -12.801 c 0 -0.886 -0.713 -1.6 -1.6 -1.6 l -12.801 0 z m 2.566 4.805 c 0.336 0 0.653 0.028 0.953 0.082 c 0.306 0.054 0.573 0.144 0.801 0.27 c 0.228 0.126 0.409 0.294 0.541 0.504 c 0.138 0.204 0.207 0.46 0.207 0.766 c 0 0.336 -0.088 0.623 -0.262 0.863 c -0.168 0.234 -0.396 0.396 -0.684 0.486 c 0.18 0.042 0.346 0.102 0.496 0.18 c 0.15 0.078 0.281 0.181 0.395 0.307 c 0.114 0.12 0.202 0.269 0.262 0.449 c 0.066 0.174 0.1 0.385 0.1 0.631 c 0 0.588 -0.235 1.038 -0.703 1.35 c -0.468 0.306 -1.19 0.459 -2.168 0.459 c -0.102 0 -0.223 -0.006 -0.361 -0.018 c -0.132 -0.006 -0.27 -0.019 -0.414 -0.037 c -0.138 -0.012 -0.269 -0.027 -0.395 -0.045 c -0.126 -0.024 -0.234 -0.048 -0.324 -0.072 l 0 -6 c 0.108 -0.03 0.227 -0.054 0.359 -0.072 c 0.132 -0.024 0.266 -0.043 0.404 -0.055 c 0.144 -0.018 0.282 -0.029 0.414 -0.035 c 0.138 -0.006 0.265 -0.01 0.379 -0.01 z m 0 0.521 c -0.222 0 -0.41 0.008 -0.566 0.02 c -0.15 0.012 -0.277 0.027 -0.379 0.045 l 0 2.195 l 1.187 0 c 0.222 0 0.433 -0.015 0.631 -0.045 c 0.198 -0.036 0.37 -0.096 0.514 -0.18 c 0.15 -0.09 0.266 -0.208 0.35 -0.352 c 0.084 -0.15 0.127 -0.338 0.127 -0.566 c 0 -0.204 -0.045 -0.376 -0.135 -0.514 c -0.09 -0.144 -0.221 -0.262 -0.389 -0.352 c -0.162 -0.09 -0.356 -0.152 -0.584 -0.188 c -0.228 -0.042 -0.48 -0.064 -0.756 -0.064 z m 5.344 1.01 c 0.318 0 0.579 0.026 0.783 0.08 c 0.21 0.054 0.357 0.103 0.441 0.145 l -0.135 0.521 c -0.072 -0.036 -0.195 -0.085 -0.369 -0.145 c -0.168 -0.06 -0.416 -0.09 -0.746 -0.09 c -0.132 0 -0.259 0.015 -0.379 0.045 c -0.114 0.024 -0.217 0.067 -0.307 0.127 c -0.09 0.054 -0.161 0.125 -0.215 0.215 c -0.054 0.084 -0.082 0.19 -0.082 0.316 c 0 0.126 0.024 0.232 0.072 0.322 c 0.048 0.09 0.117 0.172 0.207 0.244 c 0.096 0.066 0.21 0.129 0.342 0.189 c 0.138 0.06 0.295 0.125 0.469 0.197 c 0.18 0.072 0.352 0.147 0.514 0.225 c 0.168 0.072 0.313 0.162 0.439 0.27 c 0.126 0.102 0.229 0.229 0.307 0.379 c 0.078 0.144 0.117 0.327 0.117 0.549 c 0 0.42 -0.159 0.739 -0.477 0.955 c -0.312 0.216 -0.741 0.322 -1.287 0.322 c -0.408 0 -0.721 -0.035 -0.938 -0.107 c -0.216 -0.066 -0.36 -0.116 -0.432 -0.152 l 0.154 -0.531 c 0.018 0.012 0.057 0.033 0.117 0.063 c 0.06 0.024 0.14 0.054 0.242 0.09 c 0.102 0.03 0.221 0.058 0.359 0.082 c 0.144 0.024 0.31 0.035 0.496 0.035 c 0.336 0 0.612 -0.054 0.828 -0.162 c 0.222 -0.114 0.332 -0.302 0.332 -0.566 c 0 -0.126 -0.02 -0.234 -0.063 -0.324 c -0.036 -0.09 -0.099 -0.17 -0.189 -0.242 c -0.09 -0.072 -0.209 -0.141 -0.359 -0.207 c -0.144 -0.066 -0.325 -0.144 -0.541 -0.234 c -0.174 -0.072 -0.338 -0.145 -0.494 -0.217 c -0.156 -0.078 -0.294 -0.164 -0.414 -0.26 c -0.12 -0.102 -0.217 -0.223 -0.289 -0.361 c -0.072 -0.138 -0.107 -0.306 -0.107 -0.504 c 0 -0.378 0.142 -0.684 0.424 -0.918 c 0.288 -0.234 0.68 -0.35 1.178 -0.35 z m -6.289 1.771 l 0 2.457 c 0.09 0.012 0.224 0.027 0.404 0.045 c 0.18 0.012 0.363 0.02 0.549 0.02 c 0.276 0 0.545 -0.019 0.803 -0.055 c 0.264 -0.036 0.493 -0.101 0.691 -0.197 c 0.198 -0.096 0.359 -0.228 0.479 -0.396 c 0.12 -0.168 0.18 -0.384 0.18 -0.648 c 0 -0.24 -0.043 -0.438 -0.127 -0.594 c -0.084 -0.162 -0.203 -0.289 -0.359 -0.379 c -0.156 -0.096 -0.348 -0.161 -0.576 -0.197 c -0.222 -0.036 -0.47 -0.055 -0.746 -0.055 l -1.297 0 z m 9.902 0.734 l 0.268 0 l 0 4.055 l -0.379 0 l 0 -3.475 c -0.043 0.047 -0.1 0.094 -0.17 0.145 c -0.066 0.051 -0.143 0.102 -0.229 0.152 c -0.086 0.047 -0.176 0.094 -0.27 0.141 c -0.094 0.043 -0.188 0.078 -0.281 0.105 l -0.111 -0.293 c 0.234 -0.082 0.444 -0.184 0.627 -0.309 c 0.183 -0.129 0.366 -0.303 0.545 -0.521 z" style="fill:#ececec;fill-opacity:1"/>
</svg>
